X: 33794
T: Ray's Classic
R: polka
M: 2/4
K: Amajor
|:A>B AE|FA E>A|FB BA/B/|cB Bc|
A>B AE|FA E>A|FB BA/B/|1 cA A2:|2 cA A/B/c/d/||
|:e>f eA|f2 f2|Bf Bf|g2 g2|
cg cg|a2 a>f|eA c/B/A/B/|1 cA A/B/c/d/:|2 cA A2||

